!!!!SEGMENT: pl-wtm--r-693-m--006_moniuszko-stanislaw--sonety-krymskie-hymn.krn
!!!cenid: 18xx:2937
!!!COM: Moniuszko, Stanisław
!!!COM-rismid: pe30008351
!!!CDT: 1819/05/05-1872/06/04
!!!CNT: Polish
!!!GTL: Sonety krymskie
!!!OTL: Hymn
!!!PDT:
!!!AGN: Secular; Sonnet
!!!SMS-siglum: PL-Wtm
!!!SMS-shelfmark: R 693/M
!!!SMS-shelfwork: 006 G
!!!SMS-variant:
!!!SMS-altvar:
!!!NIFC-rismid: 1001096155
!!!URL-scan: http://repozytorium.nifc.pl/skany/pl-wtm-nut--r693m
!!!ONB-nifc: UWAGA: zbiór zawiera: 1. Cisza morska, 2. Żegluga, 3. Burza, 4. Ruina, 5. Noc, 6. Hymn, 7. Pielgrzym, 8. Epilog
!!!OMD: Maestoso.
**kern	**text	**kern	**text	**text	**text	**kern	**text	**kern	**text	**text	**text	**kern	**text	**kern	**text	**text	**text	**dynam	**kern	**text	**kern	**text	**text	**text	**dynam
*group1	*	*group1	*	*group1	*	*group1	*	*group1	*	*	*	*group1	*	*group1	*	*	*	*	*group1	*	*	*	*	*	*
*part8	*part8	*part7	*part7	*part7	*part7	*part6	*part6	*part5	*part5	*part5	*part5	*part4	*part4	*part3	*part3	*part3	*part3	*part3	*part2	*part2	*part1	*part1	*part1	*part1	*part1
*staff8	*staff8	*staff7	*staff7	*staff7	*staff7	*staff6	*staff6	*staff5	*staff5	*staff5	*staff5	*staff4	*staff4	*staff3	*staff3	*staff3	*staff3	*	*staff2	*staff2	*staff1	*staff1	*staff1	*staff1	*
*Iempty	*	*Iempty	*	*	*	*Itenor	*	*Itenor	*	*	*	*Ialto	*	*Ialto	*	*	*	*	*Isoprn	*	*Isoprn	*	*	*	*
*I"[Basso]	*	*I"[Basso]	*	*	*	*I"[Tenore]	*	*I"[Tenore]	*	*	*	*I"[Alto]	*	*I"[Alto]	*	*	*	*	*I"[Soprano]	*	*I"[Soprano]	*	*	*	*
*clefF4	*	*clefF4	*	*	*	*clefGv2	*	*clefGv2	*	*	*	*clefG2	*	*clefG2	*	*	*	*	*clefG2	*	*clefG2	*	*	*	*
*k[b-e-a-d-g-]	*	*k[b-e-a-d-g-]	*	*	*	*k[b-e-a-d-g-]	*	*k[b-e-a-d-g-]	*	*	*	*k[b-e-a-d-g-]	*	*k[b-e-a-d-g-]	*	*	*	*	*k[b-e-a-d-g-]	*	*k[b-e-a-d-g-]	*	*	*	*
*D-:	*	*D-:	*	*	*	*D-:	*	*D-:	*	*	*	*D-:	*	*D-:	*	*	*	*	*D-:	*	*D-:	*	*	*	*
*M2/2	*	*M2/2	*	*	*	*M2/2	*	*M2/2	*	*	*	*M2/2	*	*M2/2	*	*	*	*	*M2/2	*	*M2/2	*	*	*	*
*met(c|)	*	*met(c|)	*	*	*	*met(c|)	*	*met(c|)	*	*	*	*met(c|)	*	*met(c|)	*	*	*	*	*met(c|)	*	*met(c|)	*	*	*	*
=1	=1	=1	=1	=1	=1	=1	=1	=1	=1	=1	=1	=1	=1	=1	=1	=1	=1	=1	=1	=1	=1	=1	=1	=1	=1
1ryy	.	1r	.	.	.	1ryy	.	1r	.	.	.	1ryy	.	1r	.	.	.	.	1ryy	.	1r	.	.	.	.
=2	=2	=2	=2	=2	=2	=2	=2	=2	=2	=2	=2	=2	=2	=2	=2	=2	=2	=2	=2	=2	=2	=2	=2	=2	=2
1ryy	.	1r	.	.	.	1ryy	.	1r	.	.	.	1ryy	.	1r	.	.	.	.	1ryy	.	1r	.	.	.	.
=3	=3	=3	=3	=3	=3	=3	=3	=3	=3	=3	=3	=3	=3	=3	=3	=3	=3	=3	=3	=3	=3	=3	=3	=3	=3
1ryy	.	1r	.	.	.	1ryy	.	1r	.	.	.	1ryy	.	1r	.	.	.	.	1ryy	.	1r	.	.	.	.
=4	=4	=4	=4	=4	=4	=4	=4	=4	=4	=4	=4	=4	=4	=4	=4	=4	=4	=4	=4	=4	=4	=4	=4	=4	=4
1ryy	.	1r	.	.	.	1ryy	.	1r	.	.	.	1ryy	.	1r	.	.	.	.	1ryy	.	1r	.	.	.	.
=5	=5	=5	=5	=5	=5	=5	=5	=5	=5	=5	=5	=5	=5	=5	=5	=5	=5	=5	=5	=5	=5	=5	=5	=5	=5
1ryy	.	1r	.	.	.	1ryy	.	1r	.	.	.	1ryy	.	1r	.	.	.	.	1ryy	.	1r	.	.	.	.
=6	=6	=6	=6	=6	=6	=6	=6	=6	=6	=6	=6	=6	=6	=6	=6	=6	=6	=6	=6	=6	=6	=6	=6	=6	=6
1ryy	.	1r	.	.	.	1ryy	.	1r	.	.	.	1ryy	.	1r	.	.	.	.	1ryy	.	1r	.	.	.	.
=7	=7	=7	=7	=7	=7	=7	=7	=7	=7	=7	=7	=7	=7	=7	=7	=7	=7	=7	=7	=7	=7	=7	=7	=7	=7
*	*	*	*	*	*	*	*	*	*	*	*	*	*	*	*	*	*	*	*	*	*	*	*color:red	*	*
!	!	!	!	!	!	!	!	!LO:TX:t=P:problem:w źródle większość lasek jest słabo widoczna	!	!	!	!	!	!	!	!	!	!	!	!	!	!	!	!	!LO:DY:a
1ryy	.	2.D-\	Drżąc	.	.	1ryy	.	2.D-/	Drżąc	.	.	1ryy	.	2.d-/	Drżąc	.	.	.	1ryy	.	2.d-/	Drżąc	Il	Be-	pp
.	.	4E-\	mu-	.	.	.	.	4E-/	mu-	.	.	.	.	4e-/	mu-	.	.	.	.	.	4e-/	mu-	cre-	-bend	.
=8	=8	=8	=8	=8	=8	=8	=8	=8	=8	=8	=8	=8	=8	=8	=8	=8	=8	=8	=8	=8	=8	=8	=8	=8	=8
1ryy	.	(>4F\	-śli-	.	.	1ryy	.	(<4F/	-śli-	.	.	1ryy	.	(<4f/	-śli-	.	.	.	1ryy	.	(<4f/	-śli-	-den-	küsst	.
.	.	4G-\)	.	.	.	.	.	4G-/)	.	.	.	.	.	4g-/)	.	.	.	.	.	.	4g-/)	.	-te a	.	.
.	.	4A-\	-min	.	.	.	.	4A-/	-min	.	.	.	.	4a-/	-min	.	.	.	.	.	4a-/	-min	te	der	.
.	.	8B-\L	ca-	.	.	.	.	8B-\L	ca-	.	.	.	.	8b-\L	ca-	.	.	.	.	.	8b-\L	ca-	si	Mos-	.
.	.	8c\J	.	.	.	.	.	8c\J	.	.	.	.	.	8cc\J	.	.	.	.	.	.	8cc\J	.	.	.	.
=9	=9	=9	=9	=9	=9	=9	=9	=9	=9	=9	=9	=9	=9	=9	=9	=9	=9	=9	=9	=9	=9	=9	=9	=9	=9
1ryy	.	2.d-\	-łu-	.	.	1ryy	.	2.d-\	-łu-	.	.	1ryy	.	2.dd-\	-łu-	.	.	.	1ryy	.	2.dd-\	-łu-	pro-	-lim	.
.	.	4A-\	-je	.	.	.	.	4c-X\	-je	.	.	.	.	4a-/	-je	.	.	.	.	.	4cc-X\	-je	-stra, o	den	.
!!LO:LB:g=original
=10	=10	=10	=10	=10	=10	=10	=10	=10	=10	=10	=10	=10	=10	=10	=10	=10	=10	=10	=10	=10	=10	=10	=10	=10	=10
1ryy	.	4A-\	sto-	.	.	1ryy	.	4c-X\	sto-	.	.	1ryy	.	4a-/	sto-	.	.	.	1ryy	.	4cc-X\	sto-	Cia-	Tuss	.
.	.	4G-\	-py	.	.	.	.	4B--\	-py	.	.	.	.	4g-/	-py	.	.	.	.	.	4b--\	-py	-ter-	dir,	.
.	.	4F\	twej	.	.	.	.	4A-/	twej	.	.	.	.	4f/	twej	.	.	.	.	.	4a-/	twej	-dach	Fürst	.
.	.	4E-\	o-	.	.	.	.	4G-/	o	.	.	.	.	4e-/	o-	.	.	.	.	.	4g-/	o	sas-	der	.
=11	=11	=11	=11	=11	=11	=11	=11	=11	=11	=11	=11	=11	=11	=11	=11	=11	=11	=11	=11	=11	=11	=11	=11	=11	=11
1ryy	.	2F\	-po-	.	.	1ryy	.	2A-/	po-	.	.	1ryy	.	2f/	-po-	.	.	.	1ryy	.	2a-/	po-	-so-	Ber-	.
.	.	4D-\	-ki	.	.	.	.	4F/	-ki	.	.	.	.	4d-/	-ki	.	.	.	.	.	4f/	-ki	-so!	-ge,	.
.	.	4r	.	.	.	.	.	4r	.	.	.	.	.	4r	.	.	.	.	.	.	4r	.	.	.	.
=12	=12	=12	=12	=12	=12	=12	=12	=12	=12	=12	=12	=12	=12	=12	=12	=12	=12	=12	=12	=12	=12	=12	=12	=12	=12
*	*	*	*	*	*	*	*	*	*	*	*	*	*	*	*	*color:red	*	*	*	*	*	*	*	*	*
1ryy	.	1r	.	.	.	1ryy	.	1r	.	.	.	1ryy	.	2a-^>/	masz-	Che	Du	.	1ryy	.	1r	.	.	.	.
.	.	.	.	.	.	.	.	.	.	.	.	.	.	4.d-^>/	-cie	in	mächt'-	.	.	.	.	.	.	.	.
.	.	.	.	.	.	.	.	.	.	.	.	.	.	8c/	krym-	Cre-	-ger	.	.	.	.	.	.	.	.
=13	=13	=13	=13	=13	=13	=13	=13	=13	=13	=13	=13	=13	=13	=13	=13	=13	=13	=13	=13	=13	=13	=13	=13	=13	=13
*	*	*	*	*	*	*	*	*	*	*color:red	*	*	*	*	*	*	*	*	*	*	*	*	*	*	*
1ryy	.	1r	.	.	.	1ryy	.	2A-/	masz-	Che	Du	1ryy	.	(>4B-/	-skie-	-me-	Mast	.	1ryy	.	1r	.	.	.	.
.	.	.	.	.	.	.	.	.	.	.	.	.	.	4d-/	.	.	.	.	.	.	.	.	.	.	.
.	.	.	.	.	.	.	.	4G-/	-cie	in	mächt'-	.	.	4g-/)	.	.	.	.	.	.	.	.	.	.	.
.	.	.	.	.	.	.	.	4F/	krym-	Cri-	-ger	.	.	4a-/	go	-a	des	.	.	.	.	.	.	.	.
!!LO:PB:g=original
=14	=14	=14	=14	=14	=14	=14	=14	=14	=14	=14	=14	=14	=14	=14	=14	=14	=14	=14	=14	=14	=14	=14	=14	=14	=14
*	*	*	*	*color:red	*	*	*	*	*	*	*	*	*	*	*	*	*	*	*	*	*	*	*	*	*
!	!	!	!	!	!	!	!	!	!	!	!	!	!	!	!	!	!	!	!	!	!LO:TX:t=P:problem:niewyraźny zapis w języku włoskim	!	!	!	!
1ryy	.	2.G-\	Cza-	ma-	gros-	1ryy	.	(<4E-/	-skie-	-me-	Mast	1ryy	.	2b-\	stat-	sor-	Lan-	.	1ryy	.	4.b-\	wiel-	leol-	gros-	.
.	.	.	.	.	.	.	.	4G-/	.	.	.	.	.	.	.	.	.	.	.	.	.	.	.	.	.
.	.	.	.	.	.	.	.	.	.	.	.	.	.	.	.	.	.	.	.	.	8e-/	-ki	-lo e	-ser	.
.	.	.	.	.	.	.	.	4B-\)	.	.	.	.	.	4e-/	-ku	-ge	-des,	.	.	.	4e-/	Cza-	ma-	Tcha-	.
.	.	4G-\	-tyr-	-es-	-ser	.	.	4d-\	-go	-a	des	.	.	4r	.	.	.	.	.	.	4d-/	-tyr-	-es-	-tür-	.
=15	=15	=15	=15	=15	=15	=15	=15	=15	=15	=15	=15	=15	=15	=15	=15	=15	=15	=15	=15	=15	=15	=15	=15	=15	=15
1ryy	.	[>2G-\	-da-	-to-	Tscha-	1ryy	.	2A-/	stat-	sor-	lan-	1ryy	.	1r	.	.	.	.	1ryy	.	(>(<4c/	-da-	-to-	-dagh!	.
.	.	.	.	.	.	.	.	.	.	.	.	.	.	.	.	.	.	.	.	.	4e-/	.	.	.	.
.	.	8G-\L]	.	.	.	.	.	4A-/	-ku	-ge	-des	.	.	.	.	.	.	.	.	.	4a-/)	.	.	.	.
.	.	8F\J	.	.	.	.	.	.	.	.	.	.	.	.	.	.	.	.	.	.	.	.	.	.	.
.	.	8E-\L	-hu!	-so!	-tür-	.	.	4r	.	.	.	.	.	.	.	.	.	.	.	.	4cc\)	-chu!	-so	.	.
.	.	8D-\J	.	.	.	.	.	.	.	.	.	.	.	.	.	.	.	.	.	.	.	.	.	.	.
=16	=16	=16	=16	=16	=16	=16	=16	=16	=16	=16	=16	=16	=16	=16	=16	=16	=16	=16	=16	=16	=16	=16	=16	=16	=16
*	*	*^	*	*	*	*	*	*^	*	*	*	*	*	*^	*	*	*	*	*	*	*^	*	*	*	*
!	!	!	!	!	!	!	!	!	!	!	!	!	!	!	!	!	!	!	!	!	!	!	!	!	!	!	!	!	!LO:DY:a:rj
1ryy	.	4C/	2.ryy	o	O	-dagh!	1ryy	.	4A-/	2.ryy	o	.	.	1ryy	.	4g-/	2ryy	o	.	O	.	1ryy	.	4ee-\	4ryy	o	O	O	f
.	.	8.C/	.	mi-	mi-	Mi-	.	.	8.A-/	.	mi-	.	.	.	.	8.g-/	.	mi-	.	Mi-	.	.	.	8.ee-\	4ryy	mi-	mi-	Mi-	.
.	.	16C/	.	-na-	-na-	-na-	.	.	16A-/	.	-na-	.	.	.	.	16g-/	.	-na-	.	-na-	.	.	.	16ee-\	.	-na-	-na-	-na-	.
.	.	4C/	.	-re-	-re-	-ret	.	.	4A-/	.	-re-	.	.	.	.	4g-/	4ryy	-re-	.	-ret	.	.	.	4ee-\	4ryy	-re-	-re-	-ret	.
.	.	4D-\	8D-/j	-cie	-to	der	.	.	4A-\	8A-/	-cie	.	.	.	.	4g-/	8g-/j	-cie	.	der	.	.	.	4dd-\	8dd-/j	-cie	-to	der	.
.	.	.	8D-/j	.	dei	.	.	.	.	8A-/	.	.	.	.	.	.	8g-/j	.	.	.	.	.	.	.	8dd-/j	.	dei	.	.
*	*	*v	*v	*	*	*	*	*	*v	*v	*	*	*	*	*	*v	*v	*	*	*	*	*	*	*v	*v	*	*	*	*
!!LO:LB:g=original
=17	=17	=17	=17	=17	=17	=17	=17	=17	=17	=17	=17	=17	=17	=17	=17	=17	=17	=17	=17	=17	=17	=17	=17	=17	=17
1ryy	.	2E-\	świa-	mori-	.	1ryy	.	2A-/	świa-	.	Wel-	1ryy	.	2g-/	świa-	.	Wel-	.	1ryy	.	2dd-^>\	świa-	mori-	Wel-	.
.	.	8E-\	-ta	-to	.	.	.	8A-/	-ta	.	-ten!	.	.	8e-/	-ta	.	-ten!	.	.	.	8cc\	-ta	-to!	-ten!	.
.	.	8r	.	.	.	.	.	8r	.	.	.	.	.	8r	.	.	.	.	.	.	8r	.	.	.	.
!	!	!	!	!	!	!	!	!	!	!	!	!	!	!	!	!	!	!	!	!	!	!	!	!	!LO:DY:a:rj
.	.	4G-\	o	.	.	.	.	4A-/	o	.	der	.	.	4e-/	o	.	der	.	.	.	4cc\	o	Dei	der	p
=18	=18	=18	=18	=18	=18	=18	=18	=18	=18	=18	=18	=18	=18	=18	=18	=18	=18	=18	=18	=18	=18	=18	=18	=18	=18
1ryy	.	(>2F\	gór	.	.	1ryy	.	[>2A-/	gór	.	Ber-	1ryy	.	(<2d-/	gór	.	Ber-	.	1ryy	.	(2dd-\	gór	mon-	Ber-	.
.	.	4D-\)	pa-	.	.	.	.	4A-/]	pa-	.	.	.	.	4f/)	pa-	.	.	.	.	.	4a-/)	pa-	-ti	.	.
.	.	4F\	-dy-	.	.	.	.	4A-/	-dy-	.	-ge	.	.	4d-/	-dy-	.	-ge	.	.	.	4f/	-dy-	il sul-	-ge	.
=19	=19	=19	=19	=19	=19	=19	=19	=19	=19	=19	=19	=19	=19	=19	=19	=19	=19	=19	=19	=19	=19	=19	=19	=19	=19
!	!	!	!	!	!	!	!	!	!	!	!	!	!	!	!	!	!	!	!	!	!LO:TX:t=P:problem:zapisane na osobnej pięciolinii	!	!	!	!
4.E-\	.	2E-\	-sza-	.	.	4.G-/	Pa-	2G-/	-sza-	.	.	4.d-/	Pa-	2d-/	-sza-	.	.	.	4.b-\	Pa-	2b-\	-sza-	-ta-	.	.
8E-\	.	.	.	.	.	8G-/	-di-	.	.	.	.	8d-/	-di-	.	.	.	.	.	8b-\	-di-	.	.	.	.	.
4AA-/	.	4AA-/	-chu!	.	.	4E-/	-schah.	4E-/	-chu!	.	.	4c/	-schah!	4c/	-chu!	.	.	.	4a-/	-schah!	4a-/	-chu!	-no	.	.
4r	.	4r	.	.	.	4r	.	4r	.	.	.	4r	.	4r	.	.	.	.	4r	.	4r	.	.	.	.
=20	=20	=20	=20	=20	=20	=20	=20	=20	=20	=20	=20	=20	=20	=20	=20	=20	=20	=20	=20	=20	=20	=20	=20	=20	=20
!	!	!	!	!	!	!	!	!	!	!	!	!	!	!	!	!	!	!	!	!	!LO:TX:a:t=A:color=red	!	!	!	!
1ryy	.	2D-\	nad	O	.	1ryy	.	2A-\ 2d-	nad	.	Du	1ryy	.	2f/	nad	O	Du	.	1ryy	.	2a-/	Ty	Tu	Hältst	.
.	.	4.AA-\ 4.A-	po-	Cia-	.	.	.	4.c\ 4.e-	po-	.	hal-	.	.	4.g-/	po-	Cia-	hal-	.	.	.	4.a-/	nad	che	du	.
.	.	8AA-\ 8A-	-ziom	-ter-	.	.	.	8c\ 8e-	-ziom	.	-test	.	.	8g-/	-ziom	-ter-	-test	.	.	.	8a-/	po-	ti	in	.
=21	=21	=21	=21	=21	=21	=21	=21	=21	=21	=21	=21	=21	=21	=21	=21	=21	=21	=21	=21	=21	=21	=21	=21	=21	=21
1ryy	.	4D-\ 4A-	skał	-dach!	.	1ryy	.	4d-\	skał	.	Wacht!	1ryy	.	4f/	skał	-dach	Wacht!	.	1ryy	.	4a-/	-zio-	stan-	Wol-	.
.	.	4r	.	.	.	.	.	4r	.	.	.	.	.	4r	.	.	.	.	.	.	4dd-\	-mu	-ci	-ken	.
.	.	2r	.	.	.	.	.	2r	.	.	.	.	.	2r	.	.	.	.	.	.	4ff\	ska-	dal-	Wa-	.
.	.	.	.	.	.	.	.	.	.	.	.	.	.	.	.	.	.	.	.	.	4ee-\	-ły	-la	-che	.
!!LO:PB:g=original
=22	=22	=22	=22	=22	=22	=22	=22	=22	=22	=22	=22	=22	=22	=22	=22	=22	=22	=22	=22	=22	=22	=22	=22	=22	=22
1ryy	.	1r	.	.	.	1ryy	.	1r	.	.	.	1ryy	.	1r	.	.	.	.	1ryy	.	(>4dd-\	u-	ter-	vor	.
.	.	.	.	.	.	.	.	.	.	.	.	.	.	.	.	.	.	.	.	.	4a-/)	-ciekł-	-ra al	.	.
.	.	.	.	.	.	.	.	.	.	.	.	.	.	.	.	.	.	.	.	.	4f/	-szy	Ciel	Gei-	.
.	.	.	.	.	.	.	.	.	.	.	.	.	.	.	.	.	.	.	.	.	4f/	w o-	lon-	-ster	.
=23	=23	=23	=23	=23	=23	=23	=23	=23	=23	=23	=23	=23	=23	=23	=23	=23	=23	=23	=23	=23	=23	=23	=23	=23	=23
1ryy	.	1r	.	.	.	1ryy	.	1r	.	.	.	1ryy	.	1r	.	.	.	.	1ryy	.	2b-\	-bło-	-ta-	Si-	.
.	.	.	.	.	.	.	.	.	.	.	.	.	.	.	.	.	.	.	.	.	4a-/	-ki	-no	-tze,	.
.	.	.	.	.	.	.	.	.	.	.	.	.	.	.	.	.	.	.	.	.	4r	.	.	.	.
=24	=24	=24	=24	=24	=24	=24	=24	=24	=24	=24	=24	=24	=24	=24	=24	=24	=24	=24	=24	=24	=24	=24	=24	=24	=24
*	*	*	*	*	*	*	*	*	*	*	*	*	*	*	*	*	*	*	*	*	*^	*	*	*	*
!	!	!	!	!	!	!	!	!	!	!	!	!	!	!	!	!	!	!	!	!	!	!	!	!	!	!LO:DY:a:rj
1ryy	.	2D-\	u	Si-	.	1ryy	.	2A-/	u	.	Gleich	1ryy	.	2f/	u	Si-	Gleich	.	1ryy	.	2a-/	2ryy	sie-	Tu	Gleich	pp
.	.	4.GG-/ 4.D-	nie-	-no	.	.	.	4.G-/	nie-	.	Ga-	.	.	4.f-X/	nie-	-no	Ga-	.	.	.	2b-\	4.b-/j	-dzisz	al-	Ga-	.
.	.	8GG-/ 8D-	-bios	al	.	.	.	8G-/	-bios	.	-bri-	.	.	8f-/	-bios	al	-bri-	.	.	.	.	8b-/j	-la	-la	-bri-	.
*	*	*	*	*	*	*	*	*	*	*	*	*	*	*	*	*	*	*	*	*	*v	*v	*	*	*	*
=25	=25	=25	=25	=25	=25	=25	=25	=25	=25	=25	=25	=25	=25	=25	=25	=25	=25	=25	=25	=25	=25	=25	=25	=25	=25
1ryy	.	2C-X/	bram	Ciel	.	1ryy	.	2G-/	bram	.	-el,	1ryy	.	2e-/	bram	Ciel	-el	.	1ryy	.	(>(>4cc-X\	so-	por-	-el,	.
.	.	.	.	.	.	.	.	.	.	.	.	.	.	.	.	.	.	.	.	.	4g-/)	.	.	.	.
.	.	2r	.	.	.	.	.	2r	.	.	.	.	.	2r	.	.	.	.	.	.	4ee-\)	-bie	-ta	.	.
.	.	.	.	.	.	.	.	.	.	.	.	.	.	.	.	.	.	.	.	.	4dd-\	pod	ce-	dem	.
!!LO:LB:g=original
=26	=26	=26	=26	=26	=26	=26	=26	=26	=26	=26	=26	=26	=26	=26	=26	=26	=26	=26	=26	=26	=26	=26	=26	=26	=26
1ryy	.	1r	.	.	.	1ryy	.	1r	.	.	.	1ryy	.	1r	.	.	.	.	1ryy	.	(>4cc-X\	bra-	-les-	Ho-	.
.	.	.	.	.	.	.	.	.	.	.	.	.	.	.	.	.	.	.	.	.	4g-/)	.	.	.	.
.	.	.	.	.	.	.	.	.	.	.	.	.	.	.	.	.	.	.	.	.	(<4e-/	-mą	-te	-hen	.
.	.	.	.	.	.	.	.	.	.	.	.	.	.	.	.	.	.	.	.	.	4f-X/)	.	.	an	.
=27	=27	=27	=27	=27	=27	=27	=27	=27	=27	=27	=27	=27	=27	=27	=27	=27	=27	=27	=27	=27	=27	=27	=27	=27	=27
1ryy	.	1r	.	.	.	1ryy	.	1r	.	.	.	1ryy	.	1r	.	.	.	.	1ryy	.	2g-/	nie-	l'in-	Pa-	.
.	.	.	.	.	.	.	.	.	.	.	.	.	.	.	.	.	.	.	.	.	2a-/	-bios	-fi-	-ra-	.
=28	=28	=28	=28	=28	=28	=28	=28	=28	=28	=28	=28	=28	=28	=28	=28	=28	=28	=28	=28	=28	=28	=28	=28	=28	=28
*	*	*	*	*	*	*	*	*	*	*	*	*	*	*	*	*	*	*	*	*	*^	*	*	*	*
1ryy	.	2G-\	jak	in-	.	1ryy	.	2r	.	.	.	1ryy	.	2e-/	jak	in-	.	.	1ryy	.	2b-\	2ryy	jak	-ni-	-die-	.
.	.	2G-\	wy-	-fi-	.	.	.	4.B-\	jak	in-	.	.	.	2e-/	wy-	-fi-	.	.	.	.	2e-/	4.e-/j	wy-	-to	-ses	.
.	.	.	.	.	.	.	.	8B-\	wy-	-fi-	.	.	.	.	.	.	.	.	.	.	.	8e-/j	.	con-	.	.
*	*	*	*	*	*	*	*	*	*	*	*	*	*	*	*	*	*	*	*	*	*v	*v	*	*	*	*
=29	=29	=29	=29	=29	=29	=29	=29	=29	=29	=29	=29	=29	=29	=29	=29	=29	=29	=29	=29	=29	=29	=29	=29	=29	=29
1ryy	.	2.G-\	-so-	-ni-	.	1ryy	.	(>4B-\	-so-	-ni-	.	1ryy	.	2.e-/	-so-	-ni-	.	.	2ee-\	Pfor-	2.ee-^>\	-so-	-tem-	.	.
.	.	.	.	.	.	.	.	4e-\	.	.	.	.	.	.	.	.	.	.	.	.	.	.	.	.	.
.	.	.	.	.	.	.	.	4g-\)	.	.	.	.	.	.	.	.	.	.	4ee-\	-ten,	.	.	.	.	.
.	.	4G-\	-ki	-to	.	.	.	4f\	-ki	-to	.	.	.	4B-/	-ki	-to	.	.	4dd-\	gleich	4dd-\	-ki	-pli	.	.
!!LO:PB:g=original
=30	=30	=30	=30	=30	=30	=30	=30	=30	=30	=30	=30	=30	=30	=30	=30	=30	=30	=30	=30	=30	=30	=30	=30	=30	=30
1ryy	.	4G-\	Ga-	Ga-	.	1ryy	.	4f\	Ga-	.	.	1ryy	.	4.e-/	Ga-	.	.	.	1ryy	.	4dd-\	Ga-	Ga-	Ga-	.
.	.	4G-\	-bryel	-bri-	.	.	.	4e-\	-bryel	.	.	.	.	.	.	.	.	.	.	.	4cc\	-bryel	-bri-	-bri-	.
.	.	.	.	.	.	.	.	.	.	.	.	.	.	8e-/	-bryel	.	.	.	.	.	.	.	.	.	.
.	.	4.G-\	pil-	-el	.	.	.	4.e-\	pil-	.	.	.	.	4e-/	pil-	.	.	.	.	.	4.cc\	pil-	-el	-el	.
.	.	.	.	.	.	.	.	.	.	.	.	.	.	4e-/	-nu-	.	.	.	.	.	.	.	.	.	.
.	.	8G-\	-nu-	cus-	.	.	.	8e-\	-nu-	.	.	.	.	.	.	.	.	.	.	.	8b-\	-nu-	Cus-	dem	.
=31	=31	=31	=31	=31	=31	=31	=31	=31	=31	=31	=31	=31	=31	=31	=31	=31	=31	=31	=31	=31	=31	=31	=31	=31	=31
1ryy	.	(>4G-\	-ją-	-to-	.	1ryy	.	2d-\	-ją-	.	.	1ryy	.	2e-/	-ją-	.	.	.	1ryy	.	2b-\	-ją-	-to-	Ho-	.
.	.	8F\L	.	.	.	.	.	.	.	.	.	.	.	.	.	.	.	.	.	.	.	.	.	.	.
.	.	8G-\J)	.	.	.	.	.	.	.	.	.	.	.	.	.	.	.	.	.	.	.	.	.	.	.
.	.	(>4A-\	-cy	-De	.	.	.	4c\	-cy	.	.	.	.	4e-/	-cy	.	.	.	.	.	4a-/	-cy	-de!	-hen,	.
.	.	4G-\)	.	.	.	.	.	4r	.	.	.	.	.	4r	.	.	.	.	.	.	4r	.	.	.	.
=32	=32	=32	=32	=32	=32	=32	=32	=32	=32	=32	=32	=32	=32	=32	=32	=32	=32	=32	=32	=32	=32	=32	=32	=32	=32
!	!	!	!	!	!	!	!	!	!	!	!	!	!	!	!	!	!	!	!	!	!LO:TX:a:t=E:color=red	!	!	!	!LO:DY:a:rj
1ryy	.	2F\	e-	Dai	.	1ryy	.	2A-/	e-	.	.	1ryy	.	2d-/	e-	.	.	.	2dd-\	an	2dd-\	e-	dai	.	p
.	.	2AA-/	-deń-	ec-	.	.	.	2d-\	-deń-	.	.	.	.	2d-/	-deń-	.	.	.	4f/	Pa-	2f/	-deń-	ec-	.	.
.	.	.	.	.	.	.	.	.	.	.	.	.	.	.	.	.	.	.	4f/	-ra	.	.	.	.	.
=33	=33	=33	=33	=33	=33	=33	=33	=33	=33	=33	=33	=33	=33	=33	=33	=33	=33	=33	=33	=33	=33	=33	=33	=33	=33
1ryy	.	2D-\	-skie-	-ciel-	.	1ryy	.	2f\	-skie-	.	.	1ryy	.	2d-/	-skie-	.	.	.	1ryy	.	2a-/	-skie-	-ciel-	die-	.
.	.	2FF/ 2F	-go	-si	.	.	.	2A-/	-go	.	.	.	.	2d-/	-go	.	.	.	.	.	2d-/	-go	-si	-ses	.
=34	=34	=34	=34	=34	=34	=34	=34	=34	=34	=34	=34	=34	=34	=34	=34	=34	=34	=34	=34	=34	=34	=34	=34	=34	=34
!	!	!	!	!	!	!	!	!LO:S:color=red	!	!	!	!	!	!LO:T:color=red	!	!	!	!	!	!	!	!	!	!	!
1ryy	.	2.AA-/ 2.A-	gma-	tem-	Pfor-	1ryy	.	(>4.A-/	.	.	.	1ryy	.	[<2d-/j	.	tem-	.	.	1ryy	.	(<4f/	gma-	tem-	Pfor-	.
.	.	.	.	.	.	.	.	.	.	.	.	.	.	.	.	.	.	.	.	.	4g-/	.	.	.	.
.	.	.	.	.	.	.	.	8B-/	.	.	.	.	.	.	.	.	.	.	.	.	.	.	.	.	.
.	.	.	.	.	.	.	.	4A-/)	.	.	.	.	.	4d-/]	.	.	.	.	.	.	4f/)	.	.	-ten,	.
.	.	4G-\	-chu	-pli!	-ten	.	.	4A-/	.	.	.	.	.	4c/	.	-pli	.	.	.	.	4e-/	-chu	-pli	Der	.
!!LO:LB:g=original
=35	=35	=35	=35	=35	=35	=35	=35	=35	=35	=35	=35	=35	=35	=35	=35	=35	=35	=35	=35	=35	=35	=35	=35	=35	=35
1ryy	.	4.F^>\	czar-	u-	fen-	1ryy	.	2.A-/	.	.	.	1ryy	.	2.d-/	.	.	.	.	1ryy	.	2.a-/	czar-	Il	fin-	.
.	.	8G-\	-ny	-na	.	.	.	.	.	.	.	.	.	.	.	.	.	.	.	.	.	.	.	.	.
.	.	4F\	las	Sil-	-stre	.	.	.	.	.	.	.	.	.	.	.	.	.	.	.	.	.	.	.	.
.	.	4E-\	twym	-va	.	.	.	4A-/	.	.	.	.	.	4e-/	.	.	.	.	.	.	4a-/	-ny	tuo	-stre	.
=36	=36	=36	=36	=36	=36	=36	=36	=36	=36	=36	=36	=36	=36	=36	=36	=36	=36	=36	=36	=36	=36	=36	=36	=36	=36
1ryy	.	4.D-^>\	płasz-	cu-	Wald	1ryy	.	2A-/	.	.	.	1ryy	.	2f/	.	.	.	.	1ryy	.	(>2dd-\	las	man-	Wald,	.
.	.	8C/	-czem	-pa	ein	.	.	.	.	.	.	.	.	.	.	.	.	.	.	.	.	.	.	.	.
.	.	4BB-/	a	è ie	kon-	.	.	4B-\	.	.	.	.	.	4d-/	.	.	.	.	.	.	4f/)	two-	-to u-	.	.
!	!	!LO:TX:t=P:problem:niewyraźny zapis w języku niemieckim	!	!	!	!	!	!	!	!	!	!	!	!	!	!	!	!	!	!	!	!	!	!	!
.	.	4AA-/	jan-	tuo	-lel ver-	.	.	4d-\	.	.	.	.	.	4f/	.	.	.	.	.	.	4f/	-im	-ria	ein	.
=37	=37	=37	=37	=37	=37	=37	=37	=37	=37	=37	=37	=37	=37	=37	=37	=37	=37	=37	=37	=37	=37	=37	=37	=37	=37
*	*	*^	*	*	*	*	*	*^	*	*	*	*	*	*^	*	*	*	*	*	*	*^	*	*	*	*
1ryy	.	(<1GGn	2.GG\	-cza-	man-	-kült	1ryy	.	2.d-\	2d-\	.	.	.	1ryy	.	2.f/	2f/	.	.	.	.	2b-\	Man-	2.b-/	2b-\	płasz-	sel-	.	.
.	.	.	.	.	.	.	.	.	.	4d-/j	.	.	.	.	.	.	4f/j	.	.	.	.	4b-\	-tel,	.	4b-/j	.	-va	.	.
.	.	.	4GG\	.	.	dich	.	.	4d-\	4d-\	.	.	.	.	.	4f/	4f/	.	.	.	.	4b-\	ver-	4b-/j	4b-\	-czem	Jian-	.	.
*	*	*v	*v	*	*	*	*	*	*v	*v	*	*	*	*	*	*v	*v	*	*	*	*	*	*	*v	*v	*	*	*	*
=38	=38	=38	=38	=38	=38	=38	=38	=38	=38	=38	=38	=38	=38	=38	=38	=38	=38	=38	=38	=38	=38	=38	=38	=38	=38
!	!	!	!	!	!	!	!	!	!	!	!	!	!	!	!	!	!	!	!	!	!	!	!	!	!LO:DY:a:rj
1ryy	.	2.GG-X/)	.	-to	al-	1ryy	.	4.d-\	a	.	.	1ryy	.	4.f-X/	a	.	.	.	1ryy	.	4.b-\	a	-niz-	-hüllt	pp
.	.	.	.	.	.	.	.	8d-\	jan-	.	.	.	.	8f-/	jan-	.	.	.	.	.	8b-\	jan-	-ze-	dich	.
.	.	.	.	.	.	.	.	4d-\	-cza-	.	.	.	.	4f-/	-cza-	.	.	.	.	.	4b-\	-cza-	-ro	al-	.
.	.	4G-X\	-ry	Il	-ler	.	.	4d-\	-ry	.	.	.	.	4f-/	-ry	.	.	.	.	.	4b-\	-ry	to-	-ler	.
!!LO:PB:g=original
=39	=39	=39	=39	=39	=39	=39	=39	=39	=39	=39	=39	=39	=39	=39	=39	=39	=39	=39	=39	=39	=39	=39	=39	=39	=39
1ryy	.	(>2G-X\	stra-	cam-	or-	1ryy	.	(<2B-/	stra-	.	.	1ryy	.	(<2d-/	stra-	.	.	.	1ryy	.	(>2b-\	stra-	-rian-	or-	.
.	.	2GG-X/)	-chu	-po in	-ten	.	.	2An/)	-chu	.	.	.	.	2c/)	-chu	.	.	.	.	.	2e-/)	-chu	-te	-ten,	.
=40	=40	=40	=40	=40	=40	=40	=40	=40	=40	=40	=40	=40	=40	=40	=40	=40	=40	=40	=40	=40	=40	=40	=40	=40	=40
1ryy	.	[<1AA-	tur-	gem-	weis-	1ryy	.	2A-X/	Twój	.	.	1ryy	.	2c-X/	Twój	.	.	.	1ryy	.	2e-/	Twój	Il	Den	.
.	.	.	.	.	.	.	.	4A-/	tur-	.	.	.	.	4c-/	tur-	.	.	.	.	.	4f/	tur-	lam-	Tur-	.
.	.	.	.	.	.	.	.	4A-/	-ban	.	.	.	.	4c-/	-ban	.	.	.	.	.	4g-/	-ban	-po in-	-ban	.
=41	=41	=41	=41	=41	=41	=41	=41	=41	=41	=41	=41	=41	=41	=41	=41	=41	=41	=41	=41	=41	=41	=41	=41	=41	=41
1ryy	.	4.AA-/]	.	.	.	1ryy	.	4.F/	z chmur	.	.	1ryy	.	4.c-X/	z chmur	.	.	.	4.a-/	weis-	4.a-/	z chmur	-gem-	.	.
.	.	8AA-/	-ban	-ma il	-ser	.	.	8F/	haf-	.	.	.	.	8c-/	haf-	.	.	.	8a-/	-ser	8a-/	haf-	-ma il	.	.
.	.	4AA-/	twój	nu-	.	.	.	4G-/	-tu-	.	.	.	.	4cn/	-tu-	.	.	.	4cc\	Wol-	4cc\	-tu-	nu-	.	.
.	.	4AA-/	bły-	-vo-	.	.	.	4G-/	-ją	.	.	.	.	4c/	-ją	.	.	.	8b-\	-ken	4b-\	-ją	-vo-	.	.
.	.	.	.	.	.	.	.	.	.	.	.	.	.	.	.	.	.	.	8b-\	durch	.	.	.	.	.
=42	=42	=42	=42	=42	=42	=42	=42	=42	=42	=42	=42	=42	=42	=42	=42	=42	=42	=42	=42	=42	=42	=42	=42	=42	=42
1ryy	.	(>4F\	-ska-	-lo-	.	1ryy	.	4A-/	bły-	.	.	1ryy	.	4d-/	bły-	.	.	.	1ryy	.	4b-\	bły-	-lo-	wir-	.
.	.	4D-\)	.	-so	.	.	.	4F/	-ska-	.	.	.	.	4d-/	-ska-	.	.	.	.	.	4a-/	-ska-	-so	-ken	.
.	.	4BB-/	-wic	tuo	.	.	.	4G-/	-wic	.	.	.	.	4d-/	-wic	.	.	.	.	.	4d-/	-wic	tuo	gol-	.
.	.	4BB-/	po-	tur-	.	.	.	4G-/	po-	.	.	.	.	4d-/	po-	.	.	.	.	.	4e-/	po-	tur-	-dne	.
!!LO:LB:g=original
=43	=43	=43	=43	=43	=43	=43	=43	=43	=43	=43	=43	=43	=43	=43	=43	=43	=43	=43	=43	=43	=43	=43	=43	=43	=43
1ryy	.	2AA-/	-to-	-ban-	.	1ryy	.	2A-/	-to-	.	.	1ryy	.	2d-/	-to-	.	.	.	1ryy	.	2f/	-to-	-ban-	Bli-	.
.	.	4AA-/	-ki	-te!	.	.	.	4A-/	-ki	.	.	.	.	4c/	-ki	.	.	.	.	.	4e-/	-ki	-te!	-tze!	.
.	.	4r	.	.	.	.	.	4r	.	.	.	.	.	4r	.	.	.	.	.	.	4r	.	.	.	.
=44	=44	=44	=44	=44	=44	=44	=44	=44	=44	=44	=44	=44	=44	=44	=44	=44	=44	=44	=44	=44	=44	=44	=44	=44	=44
!	!	!	!	!	!	!	!	!	!	!	!	!	!	!	!	!	!	!	!	!	!LO:TX:a:t=J:color=red:rj	!	!	!	!
1ryy	.	1r	.	.	.	1ryy	.	1r	.	.	.	1ryy	.	1r	.	.	.	.	1ryy	.	1r	.	.	.	.
=45	=45	=45	=45	=45	=45	=45	=45	=45	=45	=45	=45	=45	=45	=45	=45	=45	=45	=45	=45	=45	=45	=45	=45	=45	=45
1ryy	.	1r	.	.	.	1ryy	.	1r	.	.	.	1ryy	.	1r	.	.	.	.	1ryy	.	1r	.	.	.	.
=46	=46	=46	=46	=46	=46	=46	=46	=46	=46	=46	=46	=46	=46	=46	=46	=46	=46	=46	=46	=46	=46	=46	=46	=46	=46
1ryy	.	1r	.	.	.	1ryy	.	1r	.	.	.	1ryy	.	1r	.	.	.	.	1ryy	.	1r	.	.	.	.
=47	=47	=47	=47	=47	=47	=47	=47	=47	=47	=47	=47	=47	=47	=47	=47	=47	=47	=47	=47	=47	=47	=47	=47	=47	=47
1ryy	.	1r	.	.	.	1ryy	.	1r	.	.	.	1ryy	.	1r	.	.	.	.	1ryy	.	1r	.	.	.	.
=48	=48	=48	=48	=48	=48	=48	=48	=48	=48	=48	=48	=48	=48	=48	=48	=48	=48	=48	=48	=48	=48	=48	=48	=48	=48
1ryy	.	1r	.	.	.	1ryy	.	1r	.	.	.	1ryy	.	1r	.	.	.	.	1ryy	.	1r	.	.	.	.
=49	=49	=49	=49	=49	=49	=49	=49	=49	=49	=49	=49	=49	=49	=49	=49	=49	=49	=49	=49	=49	=49	=49	=49	=49	=49
!	!	!	!	!	!	!	!	!	!	!	!	!	!	!	!	!	!	!	!	!	!	!	!	!	!LO:DY:a
1ryy	.	2.D-\	nam	.	.	1ryy	.	2.D-/	nam	.	.	1ryy	.	2.d-/	nam	.	.	.	2d-/	Uns	2.d-/	nam	ar-	.	pp
.	.	.	.	.	.	.	.	.	.	.	.	.	.	.	.	.	.	.	4d-/	mag	.	.	.	.	.
.	.	4E-\	czy	.	.	.	.	4E-/	czy	.	.	.	.	4e-/	czy	.	.	.	4e-/	die	4e-/	czy	-do il	.	.
=50	=50	=50	=50	=50	=50	=50	=50	=50	=50	=50	=50	=50	=50	=50	=50	=50	=50	=50	=50	=50	=50	=50	=50	=50	=50
1ryy	.	(>4F\	słoń-	.	.	1ryy	.	(<4F/	słoń-	.	.	1ryy	.	(<4f/	słoń-	.	.	.	4f/	Son-	(<4f/	słoń-	so-	.	.
.	.	4G-\)	.	.	.	.	.	4G-/)	.	.	.	.	.	4g-/)	.	.	.	.	4g-/	-ne	4g-/)	.	.	.	.
.	.	4A-\	-ce	.	.	.	.	4A-/	-ce	.	.	.	.	4a-/	-ce	.	.	.	4a-/	sen-	4a-/	-ce	-le o	.	.
.	.	8B-\L	do-	.	.	.	.	8B-\L	do-	.	.	.	.	8b-\L	do-	.	.	.	8b-\	-gen,	8b-\L	do-	la	.	.
.	.	8c\J	.	.	.	.	.	8c\J	.	.	.	.	.	8cc\J	.	.	.	.	8cc\	der	8cc\J	.	.	.	.
=51	=51	=51	=51	=51	=51	=51	=51	=51	=51	=51	=51	=51	=51	=51	=51	=51	=51	=51	=51	=51	=51	=51	=51	=51	=51
1ryy	.	2.d-\	-pie-	.	.	1ryy	.	2.d-\	-pie-	.	.	1ryy	.	2.dd-\	-pie-	.	.	.	2.dd-\	Ne-	2.dd-\	-pie-	neb-	.	.
.	.	4A-\	-ka	.	.	.	.	4c-X\	-ka	.	.	.	.	4a-/	-ka	.	.	.	4cc-X\	-bel	4cc-X\	-ka	-bia	.	.
!!LO:PB:g=original
=52	=52	=52	=52	=52	=52	=52	=52	=52	=52	=52	=52	=52	=52	=52	=52	=52	=52	=52	=52	=52	=52	=52	=52	=52	=52
1ryy	.	4A-\	czy-	.	.	1ryy	.	4c-X\	czy-	.	.	1ryy	.	4a-/	czy-	.	.	.	1ryy	.	(>4cc-X\	czy-	co	feucht	.
.	.	4G-X\	-li	.	.	.	.	4B--\	-li	.	.	.	.	4g-X/	-li	.	.	.	.	.	4b--\	-li	pre il	.	.
.	.	4F\	mgła	.	.	.	.	4A-/	mgła	.	.	.	.	4f/	mgła	.	.	.	.	.	4a-/)	mgła	ciel	.	.
.	.	4E-\	o-	.	.	.	.	4G-/	o-	.	.	.	.	4e-/	o-	.	.	.	.	.	4g-/	o-	ag-	be-	.
=53||	=53||	=53||	=53||	=53||	=53||	=53||	=53||	=53||	=53||	=53||	=53||	=53||	=53||	=53||	=53||	=53||	=53||	=53||	=53||	=53||	=53||	=53||	=53||	=53||	=53||
!	!	!	!	!	!	!	!	!	!	!	!	!	!	!	!	!	!	!	!	!	!LO:TX:a:t=piu mosso.	!	!	!	!
1ryy	.	4F\	-cie-	.	.	1ryy	.	4A-/	-cie-	.	.	1ryy	.	4f/	-cie-	.	.	.	1ryy	.	4a-/	-cie-	-guz-	-schat-	.
.	.	8D-\	-nia	.	.	.	.	8A-/	-nia	.	.	.	.	8d-/	-nia,	.	.	.	.	.	8f/	-nia	-zo	-ten,	.
.	.	8r	.	.	.	.	.	8r	.	.	.	.	.	8r	.	.	.	.	.	.	8r	.	.	.	.
.	.	[>4D-\	czy	.	.	.	.	[>4d-\	czy	.	.	.	.	[<4f/	czy	.	.	.	.	.	[<4a-/	czy	la	Es	.
.	.	4D-\]	sza-	.	.	.	.	4d-\]	sza-	.	.	.	.	4f/]	sza-	.	.	.	.	.	4a-/]	sza-	lo-	.	.
=54	=54	=54	=54	=54	=54	=54	=54	=54	=54	=54	=54	=54	=54	=54	=54	=54	=54	=54	=54	=54	=54	=54	=54	=54	=54
!	!	!	!	!	!	!	!	!LO:SIC:v:s:t=-rań-	!	!	!	!	!	!	!	!	!	!	!	!	!	!	!	!	!
1ryy	.	2D-\	-rań-	.	.	1ryy	.	2d-\	-ran-	.	.	1ryy	.	2f/	-rań-	.	.	.	4a-/	mag	2a-/	-rań-	-cu-	.	.
.	.	.	.	.	.	.	.	.	.	.	.	.	.	.	.	.	.	.	4a-/	der	.	.	.	.	.
.	.	4D-\	-cza	.	.	.	.	4d-\	-cza	.	.	.	.	4f/	-cza	.	.	.	4a-/	grim-	4a-/	-cza	-sta	.	.
.	.	4D-\	plon	.	.	.	.	4d-\	plon	.	.	.	.	4f/	plon	.	.	.	4a-/	-me	4a-/	plon	dis-	.	.
=55	=55	=55	=55	=55	=55	=55	=55	=55	=55	=55	=55	=55	=55	=55	=55	=55	=55	=55	=55	=55	=55	=55	=55	=55	=55
1ryy	.	2D-\	ze-	.	.	1ryy	.	2d-\	ze-	.	.	1ryy	.	2f/	ze-	.	.	.	1ryy	.	2an/	ze-	-trug-	Feind	.
.	.	4D-\	-tnie,	.	.	.	.	4d-\	-tnie,	.	.	.	.	4f/	-tnie,	.	.	.	.	.	4a/	-tnie,	-ge	uns	.
.	.	4D-\	czy	.	.	.	.	4d-\	czy	.	.	.	.	4f/	czy	.	.	.	.	.	4a/	czy	le	die	.
!!LO:LB:g=original
=56	=56	=56	=56	=56	=56	=56	=56	=56	=56	=56	=56	=56	=56	=56	=56	=56	=56	=56	=56	=56	=56	=56	=56	=56	=56
1ryy	.	2D-\	giaur	.	.	1ryy	.	2d-\	giaur	.	.	1ryy	.	2f/	giaur	.	.	.	4an/	Häu-	2an/	giaur	mes-	.	.
.	.	.	.	.	.	.	.	.	.	.	.	.	.	.	.	.	.	.	4a/	-ser	.	.	.	.	.
.	.	4D-\	pa-	.	.	.	.	4d-\	pa-	.	.	.	.	4f/	pa-	.	.	.	4a/	nie-	4a/	pa-	-si, o ie	.	.
.	.	4D-\	-li	.	.	.	.	4d-\	-li	.	.	.	.	4f/	-li	.	.	.	4a/	-der-	4a/	-li	gia-	.	.
=57	=57	=57	=57	=57	=57	=57	=57	=57	=57	=57	=57	=57	=57	=57	=57	=57	=57	=57	=57	=57	=57	=57	=57	=57	=57
1ryy	.	4D-\	do-	.	.	1ryy	.	4d-\	do-	.	.	1ryy	.	4f/	do-	.	.	.	1ryy	.	4b-\	do-	-ur-	-bren-	.
.	.	8F\	-my	.	.	.	.	8B-\	-my	.	.	.	.	8f/	-my	.	.	.	.	.	8f/	-my	-ro	-nen,	.
.	.	8r	.	.	.	.	.	8r	.	.	.	.	.	8r	.	.	.	.	.	.	8r	.	.	.	.
.	.	4B-\	Cza-	.	.	.	.	4d-\	Cza-	.	.	.	.	4f/	Cza-	.	.	.	.	.	4b-\	cza-	o	Du,	.
.	.	4B-\	-tyr-	.	.	.	.	4d-\	-tyr-	.	.	.	.	4f/	-tyr-	.	.	.	.	.	4dd-\	-tyr-	Sol-	Tscha-	.
=58	=58	=58	=58	=58	=58	=58	=58	=58	=58	=58	=58	=58	=58	=58	=58	=58	=58	=58	=58	=58	=58	=58	=58	=58	=58
1ryy	.	1B-	-da-	.	.	1ryy	.	1e-	-da-	.	.	1ryy	.	1g-	-da-	.	.	.	1ryy	.	1cc^>	-da-	-ta-	-tür-	.
=59	=59	=59	=59	=59	=59	=59	=59	=59	=59	=59	=59	=59	=59	=59	=59	=59	=59	=59	=59	=59	=59	=59	=59	=59	=59
1ryy	.	4D-\	-hu!	.	.	1ryy	.	4f\	-hu!	.	.	1ryy	.	4f/	-hu!	.	.	.	1ryy	.	4b-\	-chu!	-no!	-dagh,	.
.	.	4r	.	.	.	.	.	4r	.	.	.	.	.	4r	.	.	.	.	.	.	4r	.	.	.	.
.	.	4B-\	Cza-	.	.	.	.	4d-\	Cza-	.	.	.	.	4f/	Cza-	.	.	.	.	.	4b-\	Cz-	ce	du	.
.	.	4B-\	-tyr-	.	.	.	.	4d-\	-tyr-	.	.	.	.	4f/	-tyr-	.	.	.	.	.	4dd-\	-tyr-	dei	Tscha-	.
=60	=60	=60	=60	=60	=60	=60	=60	=60	=60	=60	=60	=60	=60	=60	=60	=60	=60	=60	=60	=60	=60	=60	=60	=60	=60
1ryy	.	1B-	-da-	.	.	1ryy	.	1e-	-da-	.	.	1ryy	.	1g-	-da-	.	.	.	1ryy	.	1cc^>	-da-	mon-	-tür	.
!!LO:PB:g=original
=61	=61	=61	=61	=61	=61	=61	=61	=61	=61	=61	=61	=61	=61	=61	=61	=61	=61	=61	=61	=61	=61	=61	=61	=61	=61
1ryy	.	8D-\	-hu!	.	.	1ryy	.	8f\	-hu!	.	.	1ryy	.	8f/	-hu!	.	.	.	1ryy	.	8b-\	-hu!	-ti!	dagh	.
.	.	8r	.	.	.	.	.	8r	.	.	.	.	.	8r	.	.	.	.	.	.	8r	.	.	.	.
.	.	4B-\	ty	.	.	.	.	4B-\	ty	.	.	.	.	4B-/ 4b-	ty	.	.	.	.	.	4b-\	ty	Tu	stehst	.
.	.	4c\	za-	.	.	.	.	4c\	za-	.	.	.	.	4c/ 4cc	za-	.	.	.	.	.	4cc\	za-	sem-	e-	.
.	.	4d-\	-wsze	.	.	.	.	4d-\	-wsze	.	.	.	.	4d-/ 4dd-	-wsze	.	.	.	.	.	8dd-/	-wsze	-pre	-wig	.
.	.	.	.	.	.	.	.	.	.	.	.	.	.	.	.	.	.	.	.	.	8dd-/	.	.	in	.
=62	=62	=62	=62	=62	=62	=62	=62	=62	=62	=62	=62	=62	=62	=62	=62	=62	=62	=62	=62	=62	=62	=62	=62	=62	=62
1ryy	.	[>2.e-\	głu-	.	.	1ryy	.	[>2.e-\	głu-	.	.	1ryy	.	[<2.e-/ [>2.ee-	głu-	.	.	.	1ryy	.	(>[>2.ee-\	głu-	cal-	glei-	.
.	.	8e-\]	.	.	.	.	.	8e-\]	.	.	.	.	.	8e-/] 8ee-]	.	.	.	.	.	.	8ee-\]	.	.	.	.
.	.	8E-\	-chy	.	.	.	.	8E-/	-chy	.	.	.	.	8e-/	-chy	.	.	.	.	.	8e-/)	-chy	-mo	-chen	.
=63	=63	=63	=63	=63	=63	=63	=63	=63	=63	=63	=63	=63	=63	=63	=63	=63	=63	=63	=63	=63	=63	=63	=63	=63	=63
1ryy	.	2E-\	nie-	.	.	1ryy	.	2E-/	nie-	.	.	1ryy	.	2e-/	nie-	.	.	.	1ryy	.	2e-/	nie-	lei all-	stol-	.
.	.	2E-\	-ru-	.	.	.	.	2E-/	-ru-	.	.	.	.	2e-/	-ru-	.	.	.	.	.	2e-/	-ru-	-to-	-zem	.
=64	=64	=64	=64	=64	=64	=64	=64	=64	=64	=64	=64	=64	=64	=64	=64	=64	=64	=64	=64	=64	=64	=64	=64	=64	=64
1ryy	.	[>1E-	-cho-	.	.	1ryy	.	[<1E-	-cho-	.	.	1ryy	.	[<1e-	-cho-	.	.	.	1ryy	.	[<1e-	-cho-	-stai.	Schwei-	.
=65	=65	=65	=65	=65	=65	=65	=65	=65	=65	=65	=65	=65	=65	=65	=65	=65	=65	=65	=65	=65	=65	=65	=65	=65	=65
1ryy	.	4E-\]	-my	.	.	1ryy	.	4E-/]	-my	.	.	1ryy	.	4e-/]	-my	.	.	.	1ryy	.	4e-/]	-my	.	-gen,	.
.	.	4r	.	.	.	.	.	4r	.	.	.	.	.	4r	.	.	.	.	.	.	4r	.	.	.	.
!	!	!	!	!	!	!	!	!	!	!	!	!	!	!	!	!	!	!	!	!	!	!	!	!	!LO:DY:a
.	.	4C/	cza-	.	.	.	.	4G-/	cza-	.	.	.	.	4e-/	cza-	.	.	.	.	.	4e-/	cza-	o	du,	p
.	.	4BB-/	-tyr-	.	.	.	.	4E-/	-tyr-	.	.	.	.	4e-/	-tyr-	.	.	.	.	.	4g-/	-tyr-	Sul-	Tscha-	.
!!LO:LB:g=original
=66	=66	=66	=66	=66	=66	=66	=66	=66	=66	=66	=66	=66	=66	=66	=66	=66	=66	=66	=66	=66	=66	=66	=66	=66	=66
1ryy	.	1AAn	-da-	.	.	1ryy	.	1E-	-da-	.	.	1ryy	.	1c	-da-	.	.	.	1ryy	.	1f	-da-	-ta-	-tür-	.
=67	=67	=67	=67	=67	=67	=67	=67	=67	=67	=67	=67	=67	=67	=67	=67	=67	=67	=67	=67	=67	=67	=67	=67	=67	=67
1ryy	.	4BB-/	-hu!	.	.	1ryy	.	4G-/	-hu!	.	.	1ryy	.	4e-/	-hu!	.	.	.	1ryy	.	4e-/	-hu!	-no!	-dagh!	.
.	.	4r	.	.	.	.	.	4r	.	.	.	.	.	4r	.	.	.	.	.	.	4r	.	.	.	.
.	.	4C/	cza-	.	.	.	.	4G-/	cza-	.	.	.	.	4e-/	cza-	.	.	.	.	.	4e-/	cza-	le	du,	.
.	.	4BB-/	-tyr-	.	.	.	.	4E-/	-tyr-	.	.	.	.	4e-/	-tyr-	.	.	.	.	.	4g-/	-tyr-	Dei	Tscha-	.
=68	=68	=68	=68	=68	=68	=68	=68	=68	=68	=68	=68	=68	=68	=68	=68	=68	=68	=68	=68	=68	=68	=68	=68	=68	=68
1ryy	.	1AAn	-da-	.	.	1ryy	.	1E-	-da-	.	.	1ryy	.	1c	-da-	.	.	.	1ryy	.	1f	-da-	mon-	-tür-	.
=69	=69	=69	=69	=69	=69	=69	=69	=69	=69	=69	=69	=69	=69	=69	=69	=69	=69	=69	=69	=69	=69	=69	=69	=69	=69
2.ryy	.	8BB-/	-hu	.	.	2.ryy	.	8G-/	-hu	.	.	4ryy	.	8e-/	-hu	.	.	.	1ryy	.	8e-/	-hu	-ti	-dagh!	.
.	.	8r	.	.	.	.	.	8r	.	.	.	.	.	8r	.	.	.	.	.	.	8r	.	.	.	.
.	.	4Dn\	ty	.	.	.	.	4Dn/	ty	.	.	4ryy	.	4dn/	ty	Il	steht	.	.	.	4dn/	ty	Il	du,	.
.	.	4E-\	za-	.	.	.	.	4E-/	za-	.	.	4ryy	.	4e-/	za-	dra-	e	.	.	.	4e-/	za-	Dra-	Tscha-	.
8F\	.	4F\	-wsze	.	.	8F/	.	4F/	-wsze	.	.	8f/	wig	4f/	-wsze	-go-	.	.	.	.	4f/	-wsze	-go-	-tür-	.
8F\	.	.	.	.	.	8F/	.	.	.	.	.	8f/	in	.	.	.	.	.	.	.	.	.	.	.	.
=70	=70	=70	=70	=70	=70	=70	=70	=70	=70	=70	=70	=70	=70	=70	=70	=70	=70	=70	=70	=70	=70	=70	=70	=70	=70
1ryy	.	[>2.G-X\	nie-	.	.	1ryy	.	[<2.G-X/	nie-	.	.	1ryy	.	[<2.g-X/	nie-	-men-	glei-	.	1ryy	.	2.g-X/	.	-men	-dagh!	.
.	.	8G-\]	.	.	.	.	.	8G-/]	.	.	.	.	.	8g-/]	.	.	.	.	.	.	4r	.	.	.	.
.	.	8GG-X/	-my	.	.	.	.	8G-/	-my	.	.	.	.	8G-X/	-my	-no	-chem	.	.	.	.	.	.	.	.
!!LO:PB:g=original
=71	=71	=71	=71	=71	=71	=71	=71	=71	=71	=71	=71	=71	=71	=71	=71	=71	=71	=71	=71	=71	=71	=71	=71	=71	=71
1ryy	.	2GG-X/	nie-	.	.	1ryy	.	2G-X/	nie-	.	.	1ryy	.	2G-X/	nie-	sei	stol-	.	1ryy	.	1r	.	.	.	.
.	.	2GG-/	-ru-	.	.	.	.	2G-/	-ru-	.	.	.	.	2G-/	-ru-	al-	-zen	.	.	.	.	.	.	.	.
=72	=72	=72	=72	=72	=72	=72	=72	=72	=72	=72	=72	=72	=72	=72	=72	=72	=72	=72	=72	=72	=72	=72	=72	=72	=72
1ryy	.	1GG-X	-cho-	.	.	1ryy	.	1G-X	-cho-	.	.	1ryy	.	1G-X	-cho-	-tie-	Schwei-	.	1ryy	.	1r	.	.	.	.
=73	=73	=73	=73	=73	=73	=73	=73	=73	=73	=73	=73	=73	=73	=73	=73	=73	=73	=73	=73	=73	=73	=73	=73	=73	=73
2r	.	4GG-X/	-my	.	.	1ryy	.	4G-X/	-my	.	.	2r	.	4G-X/	-my	-ro	-gen.	.	1ryy	.	1r	.	.	.	.
.	.	4r	.	.	.	.	.	4r	.	.	.	.	.	4r	.	.	.	.	.	.	.	.	.	.	.
!	!	!	!	!	!	!	!	!	!	!	!	!	!	!LO:TX:a:t=Quasi Recit.	!	!	!	!LO:DY:a:rj	!	!	!	!	!	!	!
4BB-/	Wohl	4BB-/	mię-	.	.	.	.	2r	.	.	.	4B-/	Wohl	4B-/	mię-	Tu	.	f	.	.	.	.	.	.	.
8BB-/	zwi-	4AA-/	-dzy	.	.	.	.	.	.	.	.	8B-/	zwi-	4B-/	-dzy	guar-	.	.	.	.	.	.	.	.	.
8BB-/	-schen	.	.	.	.	.	.	.	.	.	.	8B-/	-schen	.	.	.	.	.	.	.	.	.	.	.	.
=74	=74	=74	=74	=74	=74	=74	=74	=74	=74	=74	=74	=74	=74	=74	=74	=74	=74	=74	=74	=74	=74	=74	=74	=74	=74
!	!	!	!	!	!	!	!	!	!	!	!	!	!	!	!	!	!	!	!	!	!LO:TX:a:t=O:color=red	!	!	!	!
1ryy	.	(>2E-\	świa-	.	Erd'	1ryy	.	1r	.	.	.	1ryy	.	(<2e-^>/	świa-	-dia-	Erd'	.	1ryy	.	1r	.	.	.	.
.	.	4.BB-/)	-tem	.	.	.	.	.	.	.	.	.	.	4.B-/)	-tem	-mo	.	.	.	.	.	.	.	.	.
.	.	8E-\	i	.	und	.	.	.	.	.	.	.	.	8e-/	i	fe-	und	.	.	.	.	.	.	.	.
=75	=75	=75	=75	=75	=75	=75	=75	=75	=75	=75	=75	=75	=75	=75	=75	=75	=75	=75	=75	=75	=75	=75	=75	=75	=75
1ryy	.	2G-\	nie-	.	Him-	1ryy	.	1r	.	.	.	1ryy	.	2g-^>/	nie-	-de-	Him-	.	1ryy	.	1r	.	.	.	.
.	.	4.G-\j	-bem,	.	-mel	.	.	.	.	.	.	.	.	4g-/	-bem,	-le	-mel	.	.	.	.	.	.	.	.
.	.	.	.	.	.	.	.	.	.	.	.	.	.	8r	.	.	.	.	.	.	.	.	.	.	.
.	.	8A-\j	jak	.	ein	.	.	.	.	.	.	.	.	8a-/	jak	dei	ein	.	.	.	.	.	.	.	.
!!LO:LB:g=original
=76	=76	=76	=76	=76	=76	=76	=76	=76	=76	=76	=76	=76	=76	=76	=76	=76	=76	=76	=76	=76	=76	=76	=76	=76	=76
4B-\	Mit-	2B-\	drog-	.	.	1ryy	.	1r	.	.	.	4b-\	Mit-	2b-\	drog-	Del-	.	.	1ryy	.	1r	.	.	.	.
4B-\	-tels-	.	.	.	.	.	.	.	.	.	.	4b-\	-tels-	.	.	.	.	.	.	.	.	.	.	.	.
!	!	!	!	!	!	!	!	!	!	!	!	!	!	!LO:TX:t=P:problem:niewyraźny zapis w języku włoskim	!	!	!	!	!	!	!	!	!	!	!
4.A-\	-mann	4.A-\	-man	.	.	.	.	.	.	.	.	4.a-/	-mann	4.a-/	-man	-la cre-	.	.	.	.	.	.	.	.	.
8B-\	zu	8B-\	stwo-	.	.	.	.	.	.	.	.	8b-\	zu	8b-\	stwo-	-a-	.	.	.	.	.	.	.	.	.
=77	=77	=77	=77	=77	=77	=77	=77	=77	=77	=77	=77	=77	=77	=77	=77	=77	=77	=77	=77	=77	=77	=77	=77	=77	=77
!	!	!	!	!	!	!	!	!	!	!	!	!	!	!	!	!	!	!	!	!	!LO:TX:a:t=quasi Recit.:rj	!	!	!	!
1ryy	.	4A-\	-rze-	.	nen-	2r	.	2r	.	.	.	1ryy	.	4a-/	-rze-	-gio-	nen-	.	2r	.	2r	.	.	.	.
.	.	8G-\	-nia	.	-nen;	.	.	.	.	.	.	.	.	8g-/	-nia	-ne!	-nen;	.	.	.	.	.	.	.	.
.	.	8r	.	.	.	.	.	.	.	.	.	.	.	8r	.	.	.	.	.	.	.	.	.	.	.
!	!	!	!	!	!	!	!	!	!	!	!	!	!	!	!	!	!	!	!	!	!	!	!	!	!LO:DY:rj
.	.	2r	.	.	.	4E-/	Tief	4E-/	po-	.	.	.	.	2r	.	.	.	.	4e-/	Tief	4e-/	po-	Tu i	.	f
.	.	.	.	.	.	8E-/	drun-	4E-/	-de-	.	.	.	.	.	.	.	.	.	8e-/	drun-	4e-/	-de-	la-	.	.
.	.	.	.	.	.	8E-/	-ten	.	.	.	.	.	.	.	.	.	.	.	8e-/	-ten	.	.	.	.	.
=78	=78	=78	=78	=78	=78	=78	=78	=78	=78	=78	=78	=78	=78	=78	=78	=78	=78	=78	=78	=78	=78	=78	=78	=78	=78
1ryy	.	1r	.	.	.	1ryy	.	(<2G-/	-sła-	.	has-	1ryy	.	1r	.	.	.	.	1ryy	.	(<2g-/	-sła-	-man-	has-	.
.	.	.	.	.	.	.	.	4.E-/)	-wszy	.	.	.	.	.	.	.	.	.	.	.	4.e-/)	-wszy	-ti	.	.
.	.	.	.	.	.	.	.	8G-/	pod	.	-ten	.	.	.	.	.	.	.	.	.	8g-/	pod	dell	-ten	.
=79	=79	=79	=79	=79	=79	=79	=79	=79	=79	=79	=79	=79	=79	=79	=79	=79	=79	=79	=79	=79	=79	=79	=79	=79	=79
1ryy	.	1r	.	.	.	1ryy	.	4B-\	no-	.	Men-	1ryy	.	1r	.	.	.	.	1ryy	.	4b-\	no-	uo-	Men-	.
.	.	.	.	.	.	.	.	8B-\	-gi	.	-schen	.	.	.	.	.	.	.	.	.	8b-\	-gi	-mo	-schen	.
.	.	.	.	.	.	.	.	8r	.	.	.	.	.	.	.	.	.	.	.	.	8r	.	.	.	.
.	.	.	.	.	.	.	.	(>4.B-\	zie-	.	er-	.	.	.	.	.	.	.	.	.	(>4.b-\	zie-	e	er-	.
.	.	.	.	.	.	.	.	8c\)	-mię	.	.	.	.	.	.	.	.	.	.	.	8cc\)	-mię	la	.	.
=80	=80	=80	=80	=80	=80	=80	=80	=80	=80	=80	=80	=80	=80	=80	=80	=80	=80	=80	=80	=80	=80	=80	=80	=80	=80
*	*	*	*	*	*	*	*	*^	*	*	*	*	*	*	*	*	*	*	*	*	*^	*	*	*	*
1ryy	.	1r	.	.	.	4.d-\	-grü-	2d-\	4.d-/j	lu-	.	.	1ryy	.	1r	.	.	.	.	4.dd-\	-grü-	2dd-\	4.dd-/j	lu-	fol-	.	.
.	.	.	.	.	.	8d-\	-nen	.	8d-/j	.	.	.	.	.	.	.	.	.	.	8dd-\	-nen	.	8dd-/j	.	-go-	.	.
.	.	.	.	.	.	4.c\	Gär-	4.c\	2ryy	-dzi	.	.	.	.	.	.	.	.	.	4.cc\	Gär-	4.cc\	2ryy	-dzi	-re	.	.
.	.	.	.	.	.	8d-\	-ten	8d-\	.	i	.	.	.	.	.	.	.	.	.	8dd-\	-ten	8dd-\	.	i	in	.	.
*	*	*	*	*	*	*	*	*v	*v	*	*	*	*	*	*	*	*	*	*	*	*	*v	*v	*	*	*	*
!!LO:PB:g=original
=81	=81	=81	=81	=81	=81	=81	=81	=81	=81	=81	=81	=81	=81	=81	=81	=81	=81	=81	=81	=81	=81	=81	=81	=81	=81
1ryy	.	1r	.	.	.	1ryy	.	2.B-\	gro-	.	Mat-	1ryy	.	1r	.	.	.	.	1ryy	.	2.b-\	gro-	ten-	Mat-	.
.	.	.	.	.	.	.	.	4G-/	-my	.	-ten,	.	.	.	.	.	.	.	.	.	4b-\	-my	-di	-ten,	.
=82	=82	=82	=82	=82	=82	=82	=82	=82	=82	=82	=82	=82	=82	=82	=82	=82	=82	=82	=82	=82	=82	=82	=82	=82	=82
!	!	!	!	!	!	!	!	!	!	!	!	!	!	!	!	!	!	!	!	!	!LO:TX:a:t=piu lento.	!	!	!	!LO:DY:a:rj
1ryy	.	2GG-/	słu-	.	.	1ryy	.	2F-X/	słu-	.	Doch	1ryy	.	2d-/	Słu-	.	Doch	.	1ryy	.	2b-\	słu-	e	Doch	pp
.	.	4GG-/	-chasz	.	.	.	.	4F-/	-chasz	.	dir,	.	.	4d-/	-chasz	.	dir,	.	.	.	4b-\	-chasz	cio	dir,	.
.	.	4GG-/	co	.	.	.	.	4F-/	co	.	doch	.	.	4d-/	co	.	doch	.	.	.	4b-\	co	che	doch	.
=83	=83	=83	=83	=83	=83	=83	=83	=83	=83	=83	=83	=83	=83	=83	=83	=83	=83	=83	=83	=83	=83	=83	=83	=83	=83
1ryy	.	2.GG-/	mó-	.	.	1ryy	.	2.F-X/	mó-	.	dir	1ryy	.	2.d-/	mó-	.	dir	.	1ryy	.	2.b-\	mó-	for-	dir	.
.	.	4GG-/	-wi	.	.	.	.	4F-/	-wi	.	ist	.	.	4d-/	-wi	.	ist	.	.	.	4b-\	-wi	-se	ist	.
=84	=84	=84	=84	=84	=84	=84	=84	=84	=84	=84	=84	=84	=84	=84	=84	=84	=84	=84	=84	=84	=84	=84	=84	=84	=84
1ryy	.	4.GG-/	Bóg	.	.	1ryy	.	4.F-X/	Bóg	.	Göt-	1ryy	.	4.d-/	Bóg	.	Göt-	.	1ryy	.	4.b-\	Bóg	Di-	Göt-	.
.	.	8GG-/	do	.	.	.	.	8F-/	do	.	-ter-	.	.	8d-/	do	.	-ter-	.	.	.	8b-\	do	-ceal	-ter-	.
.	.	4GG-/	przy-	.	.	.	.	4F-/	przy-	.	-nä-	.	.	4d-/	przy-	.	-nä-	.	.	.	4b-\	przy-	mon-	-nä-	.
.	.	4G-\	-ro-	.	.	.	.	4d-\	-ro-	.	-he	.	.	4d-/	-ro-	.	-he	.	.	.	4b-\	-ro-	-do la	-he	.
=85	=85	=85	=85	=85	=85	=85	=85	=85	=85	=85	=85	=85	=85	=85	=85	=85	=85	=85	=85	=85	=85	=85	=85	=85	=85
1ryy	.	(>2G-\	-dze-	.	.	1ryy	.	2B-\	-dze-	.	ei-	1ryy	.	(<2d-/	-dze-	.	ei-	.	1ryy	.	(>2b-\	-dze-	Di-	ei-	.
.	.	2GG-/)	-nia	.	.	.	.	2An/	-nia	.	-gen,	.	.	2c/)	-nia	.	-gen,	.	.	.	2e-/)	-nia	-o	-gen,	.
=86	=86	=86	=86	=86	=86	=86	=86	=86	=86	=86	=86	=86	=86	=86	=86	=86	=86	=86	=86	=86	=86	=86	=86	=86	=86
1ryy	.	4.G-\	słu-	.	.	1ryy	.	4.A-X/	słu-	.	Dir	1ryy	.	1c-X	co	che	doch	.	1ryy	.	4.e-/	słu-	Cio	Dir	.
.	.	8G-\	-chasz	.	.	.	.	8A-/	-chasz	.	in	.	.	.	.	.	.	.	.	.	8e-/	-chasz	che	in	.
.	.	4F\	tyl-	.	.	.	.	4A-/	tyl-	.	dei-	.	.	.	.	.	.	.	.	.	4f/	tyl-	di-	dei-	.
!	!	!	!	!	!	!	!	!	!	!	!	!	!	!	!	!	!	!	!	!	!LO:TX:t=P:problem:niewyraźny zapis włoskich słów	!	!	!	!
.	.	4E-\	-ko	.	.	.	.	4A-/	-ko	.	-nen	.	.	.	.	.	.	.	.	.	4g-/	-ko	-ce Jol-	-nen	.
!!LO:LB:g=original
=87	=87	=87	=87	=87	=87	=87	=87	=87	=87	=87	=87	=87	=87	=87	=87	=87	=87	=87	=87	=87	=87	=87	=87	=87	=87
!	!	!LO:S:color=red	!	!	!	!	!	!	!	!	!	!	!	!	!	!	!	!	!	!	!	!	!	!	!
1ryy	.	(>4D-\	co	.	.	1ryy	.	2F/	co	.	Hö-	1ryy	.	2c-X/	mó-	di-	dir	.	1ryy	.	(>2a-/	co	di-	Hö-	.
.	.	4Dn\)	.	.	.	.	.	.	.	.	.	.	.	.	.	.	.	.	.	.	.	.	.	.	.
.	.	4E-\	mó-	.	.	.	.	4G-/	mó-	.	-hen	.	.	2cn/	-wi	-ce al	ist	.	.	.	4.ccn\)	mó-	-o	-hen	.
.	.	4En\	-wi	.	.	.	.	4Gn/	-wi	.	ist	.	.	.	.	.	.	.	.	.	.	.	.	.	.
.	.	.	.	.	.	.	.	.	.	.	.	.	.	.	.	.	.	.	.	.	8b-\	-wi	al	ist	.
=88	=88	=88	=88	=88	=88	=88	=88	=88	=88	=88	=88	=88	=88	=88	=88	=88	=88	=88	=88	=88	=88	=88	=88	=88	=88
1ryy	.	4F\	Bóg	.	.	1ryy	.	4B-\	Bóg	.	Göt-	1ryy	.	4d-/	Bóg	mon-	Göt-	.	1ryy	.	4b-\	Bóg	mon-	Göt-	.
.	.	4D-\	do	.	.	.	.	4A-/	do	.	-ter-	.	.	4d-/	do	-do	-ter-	.	.	.	4a-/	do	-do	-ter-	.
.	.	4D-\	przy-	.	.	.	.	4A-/	przy-	.	-nä-	.	.	4d-/	przy-	tu	-nä-	.	.	.	4d-/	przy-	tu	-nä-	.
!	!	!	!	!	!	!	!	!LO:ACC:color=red	!	!	!	!	!	!	!	!	!	!	!	!	!	!	!	!	!
.	.	4BB-/	-ro-	.	.	.	.	4G-X/	-ro-	.	-he	.	.	4d-/	-ro-	som-	-he	.	.	.	4e-/	-ro-	com-	-he	.
=89	=89	=89	=89	=89	=89	=89	=89	=89	=89	=89	=89	=89	=89	=89	=89	=89	=89	=89	=89	=89	=89	=89	=89	=89	=89
1ryy	.	1AA-	-dze-	.	.	1ryy	.	(<2A-/	-dze-	.	ei-	1ryy	.	2.d-/	-dze-	-pren-	ei-	.	1ryy	.	(<2.f/	-dze-	-pren-	ei-	.
.	.	.	.	.	.	.	.	2G-/)	.	.	.	.	.	.	.	.	.	.	.	.	.	.	.	.	.
.	.	.	.	.	.	.	.	.	.	.	.	.	.	4c/	.	.	.	.	.	.	4e-/)	.	.	.	.
=90	=90	=90	=90	=90	=90	=90	=90	=90	=90	=90	=90	=90	=90	=90	=90	=90	=90	=90	=90	=90	=90	=90	=90	=90	=90
1ryy	.	[>1D-	-nia.	.	.	1ryy	.	[<1F	-nia.	.	-gen.	1ryy	.	[<1d-	-nia.	-di.	-gen!	.	1ryy	.	[<1d-	-nia.	-di!	-gen!	.
=91	=91	=91	=91	=91	=91	=91	=91	=91	=91	=91	=91	=91	=91	=91	=91	=91	=91	=91	=91	=91	=91	=91	=91	=91	=91
1ryy	.	4D-\]	.	.	.	1ryy	.	4F/]	.	.	.	1ryy	.	4d-/]	.	-.	.	.	1ryy	.	4d-/]	.	.	.	.
.	.	4r	.	.	.	.	.	4r	.	.	.	.	.	4r	.	.	.	.	.	.	4r	.	.	.	.
.	.	2r	.	.	.	.	.	2r	.	.	.	.	.	2r	.	.	.	.	.	.	2r	.	.	.	.
=92	=92	=92	=92	=92	=92	=92	=92	=92	=92	=92	=92	=92	=92	=92	=92	=92	=92	=92	=92	=92	=92	=92	=92	=92	=92
1ryy	.	1r	.	.	.	1ryy	.	1r	.	.	.	1ryy	.	1r	.	.	.	.	1ryy	.	1r	.	.	.	.
=93	=93	=93	=93	=93	=93	=93	=93	=93	=93	=93	=93	=93	=93	=93	=93	=93	=93	=93	=93	=93	=93	=93	=93	=93	=93
1ryy	.	1r	.	.	.	1ryy	.	1r	.	.	.	1ryy	.	1r	.	.	.	.	1ryy	.	1r	.	.	.	.
=94	=94	=94	=94	=94	=94	=94	=94	=94	=94	=94	=94	=94	=94	=94	=94	=94	=94	=94	=94	=94	=94	=94	=94	=94	=94
1ryy	.	1r;>	.	.	.	1ryy	.	1r;>	.	.	.	1ryy	.	1r;>	.	.	.	.	1ryy	.	1r;>	.	.	.	.
==	==	==	==	==	==	==	==	==	==	==	==	==	==	==	==	==	==	==	==	==	==	==	==	==	==
*-	*-	*-	*-	*-	*-	*-	*-	*-	*-	*-	*-	*-	*-	*-	*-	*-	*-	*-	*-	*-	*-	*-	*-	*-	*-
!!!system-decoration: ([g1])
!!!AIN: 2 alto 2 empty 2 soprn 2 tenor
!!!ENC: Anastazja Marusiak
!!!END: 2021-08-21
!!!EED: Jędrzej Mróz
!!!ESR: 2021-10-04
!!!RDF**kern: > = above
!!!RDF**kern: < = below
!!!RDF**kern: j = marked note, color=red
